icon/gr/paint.svg

<svg xmlns="http://www.w3.org/2000/svg" viewBox="0 0 24 24" height="1em" width="1em">
  <path fill="none" stroke="#000" stroke-width="2" d="M4,10 L2,10 C2,4.4771525 2,1 12,1 C22,1 22,4.4771525 22,10 L20,10 M12,10 C16.418278,10 20,9.1045695 20,8 C20,6.8954305 16.418278,6 12,6 C7.581722,6 4,6.8954305 4,8 C4,9.1045695 7.581722,10 12,10 Z M4,20 C4,21.6568542 7.581722,23 12,23 C16.418278,23 20,21.6568542 20,20 M20,8 L20,20 L20,8 Z M4,20 L4,8 L4,20 Z M8,13 L8,17 M13,13 L13,17 M7,12 C5.5,12 4,11 4,8 M18,13.5 C18,13.5 18,14 18,12 C18,10 20,11 20,8 M8,13 C8,12.4477153 7.55228475,12 7,12 M13,13 C13,12.4477153 13.4477153,12 14,12 C14.5522847,12 15,12.4477153 15,13 L15,13.5 M15,13.5 C15,14.3284271 15.6715729,15 16.5,15 C17.3284271,15 18,14.3284271 18,13.5 M8,17 C8,18.3807119 9.11928813,19.5 10.5,19.5 C11.8807119,19.5 13,18.3807119 13,17"/>
</svg>

<svg xmlns="http://www.w3.org/2000/svg" width="24" height="24"><path fill="none" stroke="#000" stroke-width="2" d="M4 10H2c0-5.523 0-9 10-9s10 3.477 10 9h-2m-8 0c4.418 0 8-.895 8-2s-3.582-2-8-2-8 .895-8 2 3.582 2 8 2ZM4 20c0 1.657 3.582 3 8 3s8-1.343 8-3m0-12v12V8ZM4 20V8v12Zm4-7v4m5-4v4m-6-5c-1.5 0-3-1-3-4m14 5.5V12c0-2 2-1 2-4M8 13a1 1 0 0 0-1-1m6 1a1 1 0 0 1 2 0v.5m0 0a1.5 1.5 0 0 0 3 0M8 17a2.5 2.5 0 1 0 5 0"/></svg>
